local/share/icons/dracula-icons-main/16/actions/minuet-intervals.svg

<?xml version="1.0" encoding="UTF-8"?>
<svg xmlns="http://www.w3.org/2000/svg" xmlns:xlink="http://www.w3.org/1999/xlink" width="16" height="16" viewBox="0 0 16 16">
<path fill-rule="nonzero" fill="rgb(100%, 100%, 100%)" fill-opacity="1" d="M 8.316406 2.902344 C 7.699219 2.890625 7.070312 3.296875 6.507812 4 L 2 4 L 2 5 L 5.867188 5 C 5.445312 5.8125 5.105469 6.828125 4.894531 8 L 2 8 L 2 9 L 4.742188 9 C 4.714844 9.273438 4.6875 9.546875 4.671875 9.824219 C 4.683594 9.726562 4.695312 9.628906 4.707031 9.53125 C 4.753906 9.355469 4.8125 9.175781 4.863281 9 L 9.144531 9 C 9.339844 9.632812 9.839844 10.128906 10.472656 10.320312 C 11.523438 10.640625 12.636719 10.050781 12.960938 9 L 14 9 L 14 8 L 13.003906 8 C 12.855469 7.289062 12.332031 6.714844 11.636719 6.5 L 11.628906 6.496094 C 11.363281 6.417969 11.085938 6.394531 10.8125 6.429688 C 10.660156 5.890625 10.515625 5.425781 10.359375 5 L 14 5 L 14 4 L 9.902344 4 C 9.722656 3.699219 9.53125 3.4375 9.285156 3.257812 L 9.203125 3.199219 C 8.914062 3.007812 8.617188 2.90625 8.316406 2.902344 Z M 8.105469 3.640625 C 8.199219 3.628906 8.292969 3.628906 8.386719 3.644531 C 8.621094 3.679688 8.863281 3.8125 9.109375 4 L 7.320312 4 C 7.570312 3.800781 7.832031 3.667969 8.105469 3.640625 Z M 6.46875 5 L 9.996094 5 C 10.257812 5.386719 10.523438 5.847656 10.800781 6.429688 C 10.015625 6.527344 9.367188 7.078125 9.140625 7.832031 C 9.121094 7.886719 9.109375 7.945312 9.097656 8 L 5.164062 8 C 5.53125 6.871094 5.96875 5.800781 6.46875 5 Z M 11.058594 7.457031 C 11.144531 7.457031 11.230469 7.46875 11.3125 7.492188 L 11.339844 7.5 C 11.851562 7.65625 12.144531 8.199219 11.988281 8.71875 C 11.835938 9.234375 11.292969 9.527344 10.777344 9.378906 C 10.261719 9.226562 9.960938 8.6875 10.109375 8.167969 C 10.230469 7.746094 10.617188 7.453125 11.058594 7.457031 Z M 5.097656 10.414062 C 4.199219 10.394531 3.398438 10.972656 3.140625 11.832031 C 3.121094 11.886719 3.109375 11.945312 3.097656 12 L 2 12 L 2 13 L 3.144531 13 C 3.339844 13.632812 3.835938 14.128906 4.46875 14.320312 C 5.523438 14.640625 6.636719 14.050781 6.960938 13 L 14 13 L 14 12 L 7.003906 12 C 6.855469 11.289062 6.332031 10.714844 5.636719 10.5 L 5.628906 10.496094 C 5.457031 10.445312 5.277344 10.417969 5.097656 10.414062 Z M 5.054688 11.457031 C 5.144531 11.457031 5.230469 11.46875 5.3125 11.492188 L 5.339844 11.5 C 5.851562 11.65625 6.144531 12.199219 5.988281 12.71875 C 5.835938 13.234375 5.292969 13.527344 4.777344 13.378906 C 4.261719 13.226562 3.960938 12.6875 4.109375 12.167969 C 4.230469 11.746094 4.617188 11.453125 5.054688 11.457031 Z M 5.054688 11.457031 "/>
</svg>

<?xml version="1.0" encoding="UTF-8" standalone="no"?>
<!-- Created with Inkscape (http://www.inkscape.org/) -->
<svg id="svg3699" xmlns:rdf="http://www.w3.org/1999/02/22-rdf-syntax-ns#" xmlns="http://www.w3.org/2000/svg" height="16" viewBox="0 0 16 16" width="16" version="1.1" xmlns:cc="http://creativecommons.org/ns#" xmlns:dc="http://purl.org/dc/elements/1.1/">
 <defs id="defs4339">
  <style id="current-color-scheme" type="text/css">.ColorScheme-Text {
        color:#FFFFFF;
      }</style>
 </defs>
 <metadata id="metadata3704">
  <rdf:RDF>
   <cc:Work rdf:about="">
    <dc:format>image/svg+xml</dc:format>
    <dc:type rdf:resource="http://purl.org/dc/dcmitype/StillImage"/>
    <dc:title/>
   </cc:Work>
  </rdf:RDF>
 </metadata>
 <g id="layer1" transform="translate(0 -1036.4)">
  <path id="rect4369" class="ColorScheme-Text" style="fill:currentColor" transform="translate(0,1036.4)" d="m8.3164 2.9004c-0.6182-0.0106-1.2476 0.3959-1.8105 1.0996h-4.5059v1h3.8691c-0.424 0.8129-0.7638 1.8278-0.9746 3h-2.8945v1h2.7422c-0.0282 0.2727-0.0538 0.546-0.0703 0.8242 0.0106-0.098 0.0227-0.196 0.0351-0.293 0.0476-0.1759 0.1072-0.3537 0.1582-0.5312h4.2793a1.9977 1.9977 0 0 0 1.3285 1.322 1.9977 1.9977 0 0 0 2.488 -1.322h1.039v-1h-0.996a1.9977 1.9977 0 0 0 -1.369 -1.5l-0.008-0.002a1.9977 1.9977 0 0 0 -0.815 -0.0683c-0.15-0.5378-0.297-1.0037-0.451-1.4297h3.639v-1h-4.0977c-0.1787-0.2991-0.3729-0.5616-0.6171-0.7422l-0.0821-0.0586c-0.2884-0.1931-0.5874-0.2946-0.8867-0.2988zm-0.209 0.7383c0.0916-0.0098 0.1851-0.0084 0.2793 0.0058 0.2338 0.0352 0.476 0.1664 0.7246 0.3555h-1.7929c0.2521-0.2004 0.5143-0.332 0.789-0.3613zm-1.6367 1.3613h3.5273c0.261 0.3875 0.527 0.8468 0.801 1.4297a1.9977 1.9977 0 0 0 -1.6603 1.4023 1.9977 1.9977 0 0 0 -0.041 0.168h-3.9336c0.3687-1.1276 0.8053-2.1974 1.3066-3zm4.5863 2.457a0.97972 0.97972 0 0 1 0.255 0.0352l0.026 0.0078a0.97972 0.97972 0 0 1 0.652 1.2168 0.97972 0.97972 0 0 1 -1.213 0.6602 0.97972 0.97972 0 0 1 -0.668 -1.209 0.97972 0.97972 0 0 1 0.948 -0.711zm-5.9593 2.957a1.9977 1.9977 0 0 0 -1.959 1.418 1.9977 1.9977 0 0 0 -0.041 0.168h-1.0977v1h1.1445a1.9977 1.9977 0 0 0 1.3262 1.322 1.9977 1.9977 0 0 0 2.4902 -1.322h7.0391v-1h-6.9961a1.9977 1.9977 0 0 0 -1.3691 -1.5l-0.0078-0.002a1.9977 1.9977 0 0 0 -0.5293 -0.084zm-0.0411 1.043a0.97972 0.97972 0 0 1 0.2559 0.035l0.0254 0.008a0.97972 0.97972 0 0 1 0.6523 1.217 0.97972 0.97972 0 0 1 -1.2129 0.66 0.97972 0.97972 0 0 1 -0.6679 -1.209 0.97972 0.97972 0 0 1 0.9472 -0.711z"/>
 </g>
</svg>
